Front/img/common-section_sousmetier/illu-22.svg

<svg width="470" height="540" viewBox="0 0 470 540" fill="none" xmlns="http://www.w3.org/2000/svg">
<path d="M68.8623 392.586L51.64 92.439C49.6643 58.0074 77.0532 29.0019 111.541 29.0019H366C399.137 29.0019 426 55.8648 426 89.0019V449.148H128.764C96.9618 449.148 70.684 424.335 68.8623 392.586Z" fill="#E1E1E1"/>
<path d="M88.2655 449.007L84.9993 373.402L426.312 449.007L370.672 488.276C346.297 505.479 315.516 510.9 286.731 503.061L88.2655 449.007Z" fill="white"/>
<ellipse rx="13.5" ry="7" transform="matrix(-1 0 0 1 260.812 428.008)" fill="#152D5D"/>
<ellipse rx="13.5" ry="6" transform="matrix(-1 0 0 1 260.812 405.008)" fill="#152D5D"/>
<path d="M274.312 428.008V405.008H247.312V428.008H274.312Z" fill="#152D5D"/>
<ellipse rx="11.5" ry="5" transform="matrix(-1 0 0 1 260.812 405.008)" fill="black"/>
<path d="M274.312 387.008L269.812 408.008C269.012 408.808 267.812 409.008 267.312 409.008L272.312 386.508L274.312 387.008Z" fill="#FF8139"/>
<path d="M252.312 388.508L259.812 410.008C258.212 410.008 256.812 409.674 256.312 409.508L249.312 389.508L252.312 388.508Z" fill="#FFD300"/>
<rect width="401.325" height="286.051" rx="50" transform="matrix(-1 0 0 1 406.334 46.9336)" fill="#152D5D"/>
<path d="M368.062 248.655L358.011 211.542L351.825 227.006L344.093 182.16L338.681 196.851L330.949 170.562L315.485 227.006L305.433 196.851L298.474 211.542L276.825 131.129L264.453 182.16L258.268 170.562L252.082 182.16L245.897 163.603L234.299 207.676L209.556 104.84L198.731 145.046L193.319 131.129L180.175 182.16L171.669 138.861L161.618 182.16L139.968 119.531L113.428 201.506L103.628 170.562L87.3906 207.676" stroke="#24AD79" stroke-width="2"/>
<path opacity="0.2" d="M358.011 211.542L368.062 248.655V274.503H87.3906V207.676L103.628 170.562L113.428 201.506L139.968 119.531L161.618 182.16L171.669 138.861L180.175 182.16L193.319 131.129L198.731 145.046L209.556 104.84L234.299 207.676L245.897 163.603L252.082 182.16L258.268 170.562L264.453 182.16L276.825 131.129L298.474 211.542L305.433 196.851L315.485 227.006L330.949 170.562L338.681 196.851L344.093 182.16L351.825 227.006L358.011 211.542Z" fill="#24AD79"/>
<line x1="370" y1="158.008" x2="48.9984" y2="158.008" stroke="#E1E1E1" stroke-dasharray="10 10"/>
<path d="M368 76V273H62" stroke="white" stroke-width="4"/>
<path d="M133.368 395.001C133.368 395.001 128.679 393.283 119.983 382.469C119.983 382.469 122.152 391.561 110.554 401.974C102.521 409.163 108.787 447.462 112.171 454.22C112.171 454.22 80.1195 485.8 27.9453 460.508C27.9453 460.508 41.0491 412.818 42.003 385.854C43.1778 355.235 46.7224 335.55 57.4464 306.643C68.1704 277.737 70.7109 261.787 69.2549 246.567C67.7989 231.348 68.5319 207.518 95.3621 201.761C122.192 196.003 125.365 227.553 125.365 227.553C125.365 227.553 127.735 267.894 117.182 277.136C107.934 285.286 92.0786 274.943 92.0786 274.943C92.0786 274.943 88.4035 293.657 92.661 300.265C92.661 300.265 98.5351 306.984 113.045 312.761C128.197 318.769 130.627 362.825 138.66 370.895" fill="#E2BBA6"/>
<path d="M108.596 202.23C109.67 208.789 111.387 219.322 112.974 229.705C111.97 219.923 110.112 209.089 108.827 202.311L108.596 202.23Z" fill="#CEA999"/>
<path d="M125.344 227.594L112.974 229.706L113.596 239.118C113.717 244.285 118.466 242.763 117.191 244.725C111.849 252.966 104.559 239.379 100.141 239.799C95.7227 240.22 93.6643 245.246 96.8373 253.817C100.01 262.388 88.6035 264.771 87.6194 269.577C86.6354 274.383 78.9739 301.447 87.6194 310.709L100.864 306.704C97.8651 304.936 95.1107 302.785 92.6702 300.306C88.4127 293.697 92.0878 274.984 92.0878 274.984C92.0878 274.984 107.933 285.327 117.191 277.177C117.957 276.491 118.632 275.71 119.199 274.854C124.471 267.474 125.224 248.741 125.374 244.725C125.525 240.71 125.344 227.594 125.344 227.594Z" fill="#CEA999"/>
<path d="M110.865 450.633C110.865 450.633 126.231 505.594 125.367 539.998L23.313 539.693H8.36719C8.36719 539.693 9.36719 512.499 13.8672 494.499C18.3672 476.499 29.8424 453.286 29.8424 453.286C29.8424 453.286 74.3752 476.105 110.865 450.633Z" fill="#F4EFEF"/>
<g style="mix-blend-mode:multiply" opacity="0.3">
<path d="M62.0449 464.07C62.2257 465.282 62.3964 466.463 62.5671 467.635C62.3964 466.463 62.2257 465.282 62.0449 464.07Z" fill="black"/>
</g>
<g style="mix-blend-mode:multiply" opacity="0.3">
<path d="M61.9036 463.15C61.9036 462.829 61.8137 462.509 61.7637 462.148C61.8037 462.509 61.8636 462.829 61.9036 463.15Z" fill="black"/>
</g>
<path d="M62.5036 521L58.3672 540H68.3672C66.3672 531 63.1399 523.167 62.5036 521Z" fill="white"/>
<path d="M62.3672 521L58.3672 540H50.3672L54.3672 525.5L43.8672 519.5C48.6672 520.3 58.2005 520.833 62.3672 521Z" fill="#C4C4C4"/>
<path d="M201.685 356.539L184.392 350.435C183.174 350.005 182.677 348.552 183.376 347.466L204.161 315.181C204.634 314.448 205.527 314.105 206.369 314.334L224.814 319.357C226.126 319.714 226.707 321.249 225.959 322.385L204.022 355.752C203.516 356.521 202.552 356.845 201.685 356.539Z" fill="#00181B"/>
<path d="M225.942 323.33C226.435 322.339 226.377 321.431 226.286 321.102L225.504 323.022L209.043 348.02L206.886 352.318C213.032 343.069 225.449 324.322 225.942 323.33Z" fill="#00181B"/>
<path d="M224.563 321.007L205.651 315.692L185.363 348.299L202.609 354.314L224.563 321.007Z" fill="white"/>
<path d="M208.328 328.869C207.471 328.584 206.683 328.607 205.966 328.936C205.255 329.267 204.637 329.919 204.111 330.892L208.271 332.274L207.804 333.679L203.508 332.252L203.353 332.656L203.187 333.158L203.087 333.52L206.809 334.756L206.345 336.151L202.778 334.967C202.537 336.994 203.329 338.31 205.154 338.916C206.023 339.205 206.977 339.312 208.014 339.238L207.399 341.09C206.479 341.196 205.49 341.074 204.432 340.722C202.967 340.236 201.908 339.438 201.256 338.331C200.611 337.225 200.4 335.865 200.625 334.252L199.239 333.792L199.702 332.396L200.943 332.808L201.037 332.464L201.149 332.127L201.364 331.54L200.123 331.128L200.59 329.723L201.958 330.177C202.696 328.728 203.675 327.722 204.894 327.162C206.114 326.601 207.459 326.565 208.931 327.054C210.147 327.458 211.147 328.087 211.93 328.941L210.597 330.393C209.814 329.619 209.058 329.112 208.328 328.869Z" fill="#FFD300"/>
<path d="M152.436 388.406C151.709 388.043 150.93 386.879 150.93 386.879L131.084 398.366C132.399 400.558 133.222 401.618 135.22 404.258C142.167 413.439 147.887 412.825 150.93 411.51C171.898 400.462 193.722 379.944 199.409 372.665C205.095 365.387 210.983 363.897 218.085 355.48C223.767 348.745 222.382 336.364 220.979 331.016C217.735 336.364 210.299 347.693 206.511 350.219C201.776 353.375 200.987 351.534 199.409 347.062C197.83 342.59 202.302 335.488 200.987 333.383C199.672 331.279 197.703 333.854 193.722 343.805C190.538 351.767 192.395 358.401 193.722 360.723C180.453 370.675 154.824 389.6 152.436 388.406Z" fill="#E2BBA6"/>
<path d="M40.7111 340.935C42.8797 328.415 50.1664 307.318 62.4088 293.625C69.9588 298.983 84.1319 300.014 91.1563 295.625C94.4036 297.857 103.821 304.149 115.511 311.455C130.123 320.588 132.254 347.987 140.779 368.383C149.303 388.78 156.609 382.996 159.958 380.865C162.637 379.16 178.731 368.586 186.443 363.513L197.403 378.125C193.851 381.17 183.521 389.694 170.613 399.435C154.478 411.613 148.694 414.657 140.779 410.09C134.576 406.512 127.99 400.08 123.813 392.76C123.838 393.534 123.224 395.61 119.757 401.186C114.219 410.09 115.511 444.34 115.511 444.34L125.253 505.377C101.629 512.196 70.7595 509.639 58.2778 507.508L53.7114 486.502L47.3183 505.377C33.9234 503.429 18.6004 498.883 12.6133 496.853C17.2422 472.742 31.2644 446.163 37.5499 413.712C37.5499 365.663 38.8514 351.672 40.7111 340.935Z" fill="#00181B"/>
<path d="M112.158 253.316C122.158 243.716 126.658 232.65 127.658 228.316C134.458 209.516 120.158 203.816 112.158 203.316C107.358 200.516 102.158 198.816 100.158 198.316C71.1582 192.816 57.1582 206.96 50.6582 217.96C46.8429 224.417 43.6582 235.96 44.6582 240.96C45.6582 245.96 44.6582 251.96 40.6582 260.46C36.6582 268.96 43.1582 270.96 43.1582 277.46C43.1582 282.66 38.9915 286.293 37.6582 287.96C40.3249 289.627 58.5582 295.016 62.1582 293.816C66.6582 292.316 65.1582 291.316 74.1582 293.816C83.1582 296.316 90.6582 294.316 95.1582 291.316C98.7582 288.916 106.492 290.65 108.658 291.316C107.658 288.483 103.758 279.916 106.158 272.316C108.558 264.716 104.158 259.483 101.658 257.816C98.9915 254.816 94.9582 247.916 100.158 244.316C105.358 240.716 110.325 248.816 112.158 253.316Z" fill="#E9D694"/>
<path d="M112.158 253.461C129.758 235.061 130.158 219.128 128.158 213.461C126.158 239.961 104.158 235.461 97.6582 242.961C91.1582 250.461 92.6582 261.461 97.6582 270.461C101.658 277.661 99.9915 282.794 98.6582 284.461C93.1582 283.961 91.1582 287.961 82.6582 289.461C74.1582 290.961 75.1582 287.961 64.6582 290.461C56.2582 292.461 43.4915 289.628 38.1582 287.961C40.1582 289.961 54.1582 293.961 59.1582 293.961C64.1582 293.961 63.1582 292.961 69.1582 292.961C75.1582 292.961 76.1582 295.461 82.6582 294.961C89.1582 294.461 89.1582 293.961 96.1582 290.461C101.758 287.661 107.158 290.294 109.158 291.961C107.658 288.461 105.058 279.261 106.658 270.461C108.658 259.461 103.158 258.961 100.658 256.461C98.8904 254.693 95.1582 247.461 101.658 243.961C105.658 241.807 110.825 249.128 112.158 253.461Z" fill="#C9B058"/>
<path d="M44.6587 261.461C41.0587 263.861 40.1587 267.461 40.1587 268.961C37.1587 263.461 40.1587 261.461 43.1587 253.961C46.1587 246.461 44.6587 247.461 44.6587 239.961C44.6587 232.461 45.6587 227.461 49.6587 219.461C53.6587 211.461 62.1587 200.461 81.6587 197.461C97.2587 195.061 108.492 200.461 112.159 203.461C115.359 203.061 118.492 204.295 119.659 204.961C117.992 205.794 113.359 206.961 108.159 204.961C102.959 202.961 99.992 204.128 99.1587 204.961C81.1587 214.961 74.1587 211.961 63.6587 215.961C53.1587 219.961 47.1587 230.461 49.6587 241.961C52.1587 253.461 49.1587 258.461 44.6587 261.461Z" fill="#FAE7A4"/>
<ellipse rx="24.5" ry="9" transform="matrix(-1 0 0 1 331.812 452.008)" fill="#152D5D"/>
<ellipse rx="24.5" ry="9" transform="matrix(-1 0 0 1 331.812 437.008)" fill="#152D5D"/>
<path d="M356.312 452.008V437.008H307.312V452.008H356.312Z" fill="#152D5D"/>
<ellipse rx="4.5" ry="13" transform="matrix(-0.964351 -0.264628 -0.264628 0.964351 303.533 340.736)" fill="#152D5D"/>
<path d="M331.812 434.508V371.508C331.646 364.674 326.112 349.208 305.312 342.008" stroke="white" stroke-width="5"/>
<path d="M297.312 324.008L306.812 328.008L299.812 353.008L287.812 349.008C287.812 336.008 292.812 327.008 297.312 324.008Z" fill="#152D5D"/>
<path d="M260.71 295L296.592 323.846C288.743 332.222 287.512 344.085 287.877 348.97L251.563 345.657C244.246 317.514 254.612 300.16 260.71 295Z" fill="white"/>
</svg>

<svg xmlns="http://www.w3.org/2000/svg" fill="none" viewBox="0 0 470 540"><path fill="#E1E1E1" d="M68.862 392.586L51.64 92.439c-1.976-34.432 25.413-63.437 59.901-63.437H366c33.137 0 60 26.863 60 60v360.146H128.764c-31.802 0-58.08-24.813-59.902-56.562z"/><path fill="#fff" d="M88.266 449.007l-3.267-75.605 341.313 75.605-55.64 39.269a100.002 100.002 0 01-83.941 14.785L88.266 449.007z"/><ellipse fill="#152D5D" rx="13.5" ry="7" transform="matrix(-1 0 0 1 260.812 428.008)"/><ellipse fill="#152D5D" rx="13.5" ry="6" transform="matrix(-1 0 0 1 260.812 405.008)"/><path fill="#152D5D" d="M274.312 428.008v-23h-27v23h27z"/><ellipse fill="#000" rx="11.5" ry="5" transform="matrix(-1 0 0 1 260.812 405.008)"/><path fill="#FF8139" d="M274.312 387.008l-4.5 21c-.8.8-2 1-2.5 1l5-22.5 2 .5z"/><path fill="#FFD300" d="M252.312 388.508l7.5 21.5c-1.6 0-3-.334-3.5-.5l-7-20 3-1z"/><rect width="401.325" height="286.051" fill="#152D5D" rx="50" transform="matrix(-1 0 0 1 406.334 46.934)"/><path stroke="#24AD79" stroke-width="2" d="M368.062 248.655l-10.051-37.113-6.186 15.464-7.732-44.846-5.412 14.691-7.732-26.289-15.464 56.444-10.052-30.155-6.959 14.691-21.649-80.413-12.372 51.031-6.185-11.598-6.186 11.598-6.185-18.557-11.598 44.073-24.743-102.836-10.825 40.206-5.412-13.917-13.144 51.031-8.506-43.299-10.051 43.299-21.65-62.629-26.54 81.975-9.8-30.944-16.237 37.114"/><path fill="#24AD79" d="M358.011 211.542l10.051 37.113v25.848H87.391v-66.827l16.237-37.114 9.8 30.944 26.54-81.975 21.65 62.629 10.051-43.299 8.506 43.299 13.144-51.031 5.412 13.917 10.825-40.206 24.743 102.836 11.598-44.073 6.185 18.557 6.186-11.598 6.185 11.598 12.372-51.031 21.649 80.413 6.959-14.691 10.052 30.155 15.464-56.444 7.732 26.289 5.412-14.691 7.732 44.846 6.186-15.464z" opacity=".2"/><path stroke="#E1E1E1" stroke-dasharray="10 10" d="M370 158.008H48.998"/><path stroke="#fff" stroke-width="4" d="M368 76v197H62"/><path fill="#E2BBA6" d="M133.368 395.001s-4.689-1.718-13.385-12.532c0 0 2.169 9.092-9.429 19.505-8.033 7.189-1.767 45.488 1.617 52.246 0 0-32.052 31.58-84.226 6.288 0 0 13.104-47.69 14.058-74.654 1.175-30.619 4.72-50.304 15.443-79.211 10.724-28.906 13.265-44.856 11.809-60.076-1.456-15.219-.723-39.049 26.107-44.806 26.83-5.758 30.003 25.792 30.003 25.792s2.37 40.341-8.183 49.583c-9.248 8.15-25.103-2.193-25.103-2.193s-3.675 18.714.582 25.322c0 0 5.874 6.719 20.384 12.496 15.152 6.008 17.582 50.064 25.615 58.134"/><path fill="#CEA999" d="M108.596 202.23c1.074 6.559 2.791 17.092 4.378 27.475-1.004-9.782-2.862-20.616-4.147-27.394l-.231-.081zM125.344 227.594l-12.37 2.112.622 9.412c.121 5.167 4.87 3.645 3.595 5.607-5.342 8.241-12.632-5.346-17.05-4.926-4.418.421-6.477 5.447-3.304 14.018 3.173 8.571-8.234 10.954-9.218 15.76-.984 4.806-8.645 31.87 0 41.132l13.245-4.005a40.017 40.017 0 01-8.194-6.398c-4.257-6.609-.582-25.322-.582-25.322s15.845 10.343 25.103 2.193a12.057 12.057 0 002.008-2.323c5.272-7.38 6.025-26.113 6.175-30.129.151-4.015-.03-17.131-.03-17.131z"/><path fill="#F4EFEF" d="M110.865 450.633s15.366 54.961 14.502 89.365l-102.054-.305H8.367s1-27.194 5.5-45.194c4.5-18 15.975-41.213 15.975-41.213s44.533 22.819 81.023-2.653z"/><path fill="#000" d="M62.045 464.07c.18 1.212.351 2.393.522 3.565-.17-1.172-.341-2.353-.522-3.565zM61.904 463.15c0-.321-.09-.641-.14-1.002.04.361.1.681.14 1.002z" opacity=".3"/><path fill="#fff" d="M62.504 521l-4.137 19h10c-2-9-5.227-16.833-5.863-19z"/><path fill="#C4C4C4" d="M62.367 521l-4 19h-8l4-14.5-10.5-6c4.8.8 14.334 1.333 18.5 1.5z"/><path fill="#00181B" d="M201.685 356.539l-17.293-6.104a2 2 0 01-1.016-2.969l20.785-32.285a2.003 2.003 0 012.208-.847l18.445 5.023a2 2 0 011.145 3.028l-21.937 33.367a2 2 0 01-2.337.787z"/><path fill="#00181B" d="M225.942 323.33c.493-.991.435-1.899.344-2.228l-.782 1.92-16.461 24.998-2.157 4.298c6.146-9.249 18.563-27.996 19.056-28.988z"/><path fill="#fff" d="M224.563 321.007l-18.912-5.315-20.288 32.607 17.246 6.015 21.954-33.307z"/><path fill="#FFD300" d="M208.328 328.869c-.857-.285-1.645-.262-2.362.067-.711.331-1.329.983-1.855 1.956l4.16 1.382-.467 1.405-4.296-1.427-.155.404-.166.502-.1.362 3.722 1.236-.464 1.395-3.567-1.184c-.241 2.027.551 3.343 2.376 3.949.869.289 1.823.396 2.86.322l-.615 1.852c-.92.106-1.909-.016-2.967-.368-1.465-.486-2.524-1.284-3.176-2.391-.645-1.106-.856-2.466-.631-4.079l-1.386-.46.463-1.396 1.241.412.094-.344.112-.337.215-.587-1.241-.412.467-1.405 1.368.454c.738-1.449 1.717-2.455 2.936-3.015 1.22-.561 2.565-.597 4.037-.108 1.216.404 2.216 1.033 2.999 1.887l-1.333 1.452c-.783-.774-1.539-1.281-2.269-1.524z"/><path fill="#E2BBA6" d="M152.436 388.406c-.727-.363-1.506-1.527-1.506-1.527l-19.846 11.487c1.315 2.192 2.138 3.252 4.136 5.892 6.947 9.181 12.667 8.567 15.71 7.252 20.968-11.048 42.792-31.566 48.479-38.845 5.686-7.278 11.574-8.768 18.676-17.185 5.682-6.735 4.297-19.116 2.894-24.464-3.244 5.348-10.68 16.677-14.468 19.203-4.735 3.156-5.524 1.315-7.102-3.157-1.579-4.472 2.893-11.574 1.578-13.679-1.315-2.104-3.284.471-7.265 10.422-3.184 7.962-1.327 14.596 0 16.918-13.269 9.952-38.898 28.877-41.286 27.683z"/><path fill="#00181B" d="M40.711 340.935c2.169-12.52 9.455-33.617 21.698-47.31 7.55 5.358 21.723 6.389 28.747 2 3.248 2.232 12.665 8.524 24.355 15.83 14.612 9.133 16.743 36.532 25.268 56.928 8.524 20.397 15.83 14.613 19.179 12.482 2.679-1.705 18.773-12.279 26.485-17.352l10.96 14.612c-3.552 3.045-13.882 11.569-26.79 21.31-16.135 12.178-21.919 15.222-29.834 10.655-6.203-3.578-12.789-10.01-16.966-17.33.025.774-.589 2.85-4.056 8.426-5.538 8.904-4.246 43.154-4.246 43.154l9.742 61.037c-23.624 6.819-54.493 4.262-66.975 2.131l-4.567-21.006-6.393 18.875c-13.395-1.948-28.718-6.494-34.705-8.524 4.63-24.111 18.651-50.69 24.937-83.141 0-48.049 1.301-62.04 3.161-72.777z"/><path fill="#E9D694" d="M112.158 253.316c10-9.6 14.5-20.666 15.5-25 6.8-18.8-7.5-24.5-15.5-25-4.8-2.8-10-4.5-12-5-29-5.5-43 8.644-49.5 19.644-3.815 6.457-7 18-6 23s0 11-4 19.5 2.5 10.5 2.5 17c0 5.2-4.166 8.833-5.5 10.5 2.667 1.667 20.9 7.056 24.5 5.856 4.5-1.5 3-2.5 12 0s16.5.5 21-2.5c3.6-2.4 11.334-.666 13.5 0-1-2.833-4.9-11.4-2.5-19 2.4-7.6-2-12.833-4.5-14.5-2.666-3-6.7-9.9-1.5-13.5 5.2-3.6 10.167 4.5 12 9z"/><path fill="#C9B058" d="M112.158 253.461c17.6-18.4 18-34.333 16-40-2 26.5-24 22-30.5 29.5s-5 18.5 0 27.5c4 7.2 2.334 12.333 1 14-5.5-.5-7.5 3.5-16 5s-7.5-1.5-18 1c-8.4 2-21.166-.833-26.5-2.5 2 2 16 6 21 6s4-1 10-1 7 2.5 13.5 2 6.5-1 13.5-4.5c5.6-2.8 11-.167 13 1.5-1.5-3.5-4.1-12.7-2.5-21.5 2-11-3.5-11.5-6-14-1.768-1.768-5.5-9 1-12.5 4-2.154 9.167 5.167 10.5 9.5z"/><path fill="#FAE7A4" d="M44.659 261.461c-3.6 2.4-4.5 6-4.5 7.5-3-5.5 0-7.5 3-15s1.5-6.5 1.5-14 1-12.5 5-20.5 12.5-19 32-22c15.6-2.4 26.833 3 30.5 6 3.2-.4 6.333.834 7.5 1.5-1.667.833-6.3 2-11.5 0s-8.167-.833-9 0c-18 10-25 7-35.5 11s-16.5 14.5-14 26-.5 16.5-5 19.5z"/><ellipse fill="#152D5D" rx="24.5" ry="9" transform="matrix(-1 0 0 1 331.812 452.008)"/><ellipse fill="#152D5D" rx="24.5" ry="9" transform="matrix(-1 0 0 1 331.812 437.008)"/><path fill="#152D5D" d="M356.312 452.008v-15h-49v15h49z"/><ellipse fill="#152D5D" rx="4.5" ry="13" transform="scale(-1 1) rotate(-15.345 1112.886 1296.94)"/><path stroke="#fff" stroke-width="5" d="M331.812 434.508v-63c-.166-6.834-5.7-22.3-26.5-29.5"/><path fill="#152D5D" d="M297.312 324.008l9.5 4-7 25-12-4c0-13 5-22 9.5-25z"/><path fill="#fff" d="M260.71 295l35.882 28.846c-7.849 8.376-9.08 20.239-8.715 25.124l-36.314-3.313c-7.317-28.143 3.049-45.497 9.147-50.657z"/></svg>
